Sources/FrostedUI/Resources/Icons.xcassets/clipboard12.imageset/clipboard-12.svg

<svg width="12" height="12" viewBox="0 0 12 12" fill="none" xmlns="http://www.w3.org/2000/svg" data-fui-icon="true">
  <path
    d="M7.25 0C8.07786 0.000173901 8.75 0.671261 8.75 1.5H9C9.93198 1.5 10.6875 2.25552 10.6875 3.1875V10.3125C10.6875 11.2445 9.93198 12 9 12H3C2.06802 12 1.3125 11.2445 1.3125 10.3125V3.1875C1.3125 2.25552 2.06802 1.5 3 1.5H3.25C3.25 0.671262 3.92214 0.00017374 4.75 0H7.25ZM3 3C2.89645 3 2.8125 3.08395 2.8125 3.1875V10.3125C2.8125 10.4161 2.89645 10.5 3 10.5H9C9.10355 10.5 9.1875 10.4161 9.1875 10.3125V3.1875C9.1875 3.08395 9.10355 3 9 3H8.66309C8.45703 3.58234 7.90293 4 7.25 4H4.75C4.09707 4 3.54297 3.58234 3.33691 3H3ZM7.25 8C7.66421 8 8 8.33579 8 8.75C8 9.16421 7.66421 9.5 7.25 9.5H4.75C4.33579 9.5 4 9.16421 4 8.75C4 8.33579 4.33579 8 4.75 8H7.25ZM7.25 5C7.66421 5 8 5.33579 8 5.75C8 6.16421 7.66421 6.5 7.25 6.5H4.75C4.33579 6.5 4 6.16421 4 5.75C4 5.33579 4.33579 5 4.75 5H7.25ZM4.75 2.5H7.25V1.5H4.75V2.5Z"
    fill="currentColor"
  />
</svg>

<svg xmlns="http://www.w3.org/2000/svg" width="12" height="12" fill="none" data-fui-icon="true" viewBox="0 0 12 12"><path fill="currentColor" d="M7.25 0a1.5 1.5 0 0 1 1.5 1.5H9c.932 0 1.688.756 1.688 1.688v7.124C10.688 11.246 9.932 12 9 12H3a1.687 1.687 0 0 1-1.687-1.687V3.186C1.313 2.257 2.068 1.5 3 1.5h.25A1.5 1.5 0 0 1 4.75 0zM3 3a.19.19 0 0 0-.187.188v7.124c0 .104.083.188.187.188h6a.187.187 0 0 0 .188-.187V3.186A.19.19 0 0 0 9 3h-.337A1.5 1.5 0 0 1 7.25 4h-2.5a1.5 1.5 0 0 1-1.413-1zm4.25 5a.75.75 0 0 1 0 1.5h-2.5a.75.75 0 0 1 0-1.5zm0-3a.75.75 0 0 1 0 1.5h-2.5a.75.75 0 0 1 0-1.5zm-2.5-2.5h2.5v-1h-2.5z"/></svg>
